X:1
T:Lillasystern
S:Boot (Soot)
Z:John Watson 26/10/2014
M:9/8
L:1/8
O:Sweden
Q:3/8=120 "allegro"
R:Polska
K:Dmaj
|: D2F Ad2 f2a | g2e ed2 c2c | efg (2Bc (2df | ece (2dA (2FA |
DF2 (2Ad (2fa | g2e ed2 c2c | efg (2Bc (2df |1 ec2 d3-d3 :|
|2 ece d3-d2 g |: f3 def def | g2 e2 c2 e2f | gb2 (2gf (2ed |
c2 e2 c2 A2g | f3 def def | g2 e2 c2 e2g | afa d'2a f2g | e^c2 d3-d3 :|

